packages/kaspersky-hexa-ui-icons/src/iconsSVGs/16/LicenseKey.svg

<svg width="16" height="16" viewBox="0 0 16 16" fill="none" xmlns="http://www.w3.org/2000/svg">
<path fill-rule="evenodd" clip-rule="evenodd" d="M1 8.00003C1 6.08333 2.55379 4.52954 4.47049 4.52954C6.16503 4.52954 7.57591 5.74402 7.8802 7.35004H14.3496C14.7086 7.35004 14.9996 7.64105 14.9996 8.00004C14.9996 8.35902 14.7086 8.65004 14.3496 8.65004H13.5624V10.1644C13.5624 10.5234 13.2714 10.8144 12.9124 10.8144C12.5534 10.8144 12.2624 10.5234 12.2624 10.1644V8.65004H7.8802C7.5759 10.256 6.16502 11.4705 4.47049 11.4705C2.55379 11.4705 1 9.91672 1 8.00003ZM4.47049 5.82954C3.27176 5.82954 2.3 6.8013 2.3 8.00003C2.3 9.19875 3.27176 10.1705 4.47049 10.1705C5.66921 10.1705 6.64097 9.19875 6.64097 8.00003C6.64097 6.8013 5.66921 5.82954 4.47049 5.82954Z" fill="black"/>
</svg>

<svg xmlns="http://www.w3.org/2000/svg" width="16" height="16" fill="none" viewBox="0 0 16 16"><path fill="#000" fill-rule="evenodd" d="M1 8c0-1.9167 1.5538-3.4705 3.4705-3.4705 1.6945 0 3.1054 1.2145 3.4097 2.8205h6.4694a.65.65 0 1 1 0 1.3h-.7872v1.5144a.65.65 0 1 1-1.3 0V8.65H7.8802c-.3043 1.606-1.7152 2.8205-3.4097 2.8205C2.5538 11.4705 1 9.9167 1 8m3.4705-2.1705C3.2718 5.8295 2.3 6.8013 2.3 8s.9718 2.1705 2.1705 2.1705S6.641 9.1987 6.641 8s-.9718-2.1705-2.1705-2.1705"/></svg>
